assets/icons/24px/stroke/battery-vertical-charging-24px.svg

<svg width="24" height="24" viewBox="0 0 24 24" fill="none" xmlns="http://www.w3.org/2000/svg">
<path d="M11 21C9.11438 21 8.17157 21 7.58579 20.4142C7 19.8284 7 18.8856 7 17L7 9C7 7.11438 7 6.17157 7.58579 5.58579C8.17157 5 9.11438 5 11 5H13C14.8856 5 15.8284 5 16.4142 5.58579C17 6.17157 17 7.11438 17 9V17C17 18.8856 17 19.8284 16.4142 20.4142C15.8284 21 14.8856 21 13 21H11Z" stroke="white" stroke-width="2" stroke-linecap="round" stroke-linejoin="round"/>
<path d="M12.5 5H11.5C10.9477 5 10.5 4.55228 10.5 4C10.5 3.44772 10.9477 3 11.5 3H12.5C13.0523 3 13.5 3.44772 13.5 4C13.5 4.55228 13.0523 5 12.5 5Z" fill="white" stroke="white" stroke-width="2" stroke-linecap="round" stroke-linejoin="round"/>
<path fill-rule="evenodd" clip-rule="evenodd" d="M13.1924 8.04947C13.6877 8.29382 13.8912 8.89342 13.6468 9.38871L12.3417 12.0341L13.2715 12.0542C13.606 12.0614 13.9147 12.2353 14.0941 12.5177C14.2735 12.8001 14.2998 13.1535 14.1641 13.4593L12.4141 17.4055C12.1902 17.9103 11.5995 18.1381 11.0946 17.9142C10.5897 17.6903 10.362 17.0995 10.5859 16.5947L11.727 14.0214L10.7285 13.9999C10.3868 13.9925 10.0725 13.8112 9.89512 13.519C9.71778 13.2268 9.70197 12.8642 9.8532 12.5577L11.8532 8.50383C12.0976 8.00854 12.6972 7.80512 13.1924 8.04947Z" fill="white"/>
</svg>

<svg width="24" height="24" fill="none" xmlns="http://www.w3.org/2000/svg"><path d="M11 21c-1.886 0-2.828 0-3.414-.586C7 19.828 7 18.886 7 17V9c0-1.886 0-2.828.586-3.414C8.172 5 9.114 5 11 5h2c1.886 0 2.828 0 3.414.586C17 6.172 17 7.114 17 9v8c0 1.886 0 2.828-.586 3.414C15.828 21 14.886 21 13 21h-2z" stroke="#fff" stroke-width="2" stroke-linecap="round" stroke-linejoin="round"/><path d="M12.5 5h-1a1 1 0 1 1 0-2h1a1 1 0 1 1 0 2z" fill="#fff" stroke="#fff" stroke-width="2" stroke-linecap="round" stroke-linejoin="round"/><path fill-rule="evenodd" clip-rule="evenodd" d="M13.192 8.05a1 1 0 0 1 .455 1.339l-1.305 2.645.93.02a1 1 0 0 1 .892 1.405l-1.75 3.947a1 1 0 0 1-1.828-.811l1.141-2.574-.998-.021a1 1 0 0 1-.876-1.442l2-4.054a1 1 0 0 1 1.34-.455z" fill="#fff"/></svg>
